X:49
T:49b. The Long Road Harmony
C:c 1999 Harry Bolick
R:Waltz
O:United States
A:Brooklyn, New York
M:3/4
L:1/8
Q:300
K:A
 |:  "A" A4 A2| "E" E6 | "F#m" C4 DE | F6|
 B2 F2 D2 | F2G2A2 | B4 F2 | F4 E2 |
"D" D2F2A2 | "E" E2 E4 |E2 F2 G2 | "A" A6 :|
|:"A" C2 E2 A2| "E" E2 G2 B2 | "D"DC DEFG | "A" A4 E2|
"E" E2 GE GB | E2 GE GB |[1 E2F2G2 | "A" A4 E2 :|[2  "A" A2 E2  "E" FG |   "A" A6 :|
